X:1058
T:Far from Home
R:reel
Z:id:hn-reel-1058
M:C|
L:1/8
K:G
GEDE G2GA | B2BA Bcd2 | GEDE G2GB | AGAB AGEG |
GEDE G2GA | B2BA Bcd2 | edef gedc |1 BGAF G3A :|2 BGAF G2Bd ||
|: g2ge f2fd | edef edBd | gedB GABG | AGAB AGE2 |
GEDE G2GA | B2BA Bcd2 | edef gedc |1 BGAF G2Bd :|2 BGAF G3A ||

